X: 5
T: 'Twould Have Melted The Heart Of A Stone
R: jig
M: 6/8
K: Dmajor
A|Add dcd|e2e efd|Add dcd|ecA d2A|Add dcd|
efg afd|Add dcd|ecA d2d|dfa afd|ceg fdc|
d2d dfd|cAc d2B|AFF GEc|d3 z2B|AFF GEc|d3z2g|
fdf fdf|a3zag|fdd gec|d3zcB|AFF GEA|d3dcB|
AGF GEc|d3z2g|fdf fdf|a3zag|fdd gec|d3z2||

